public/primaries/PhoneShake.svg

<svg id="Layer_1" data-name="Layer 1" xmlns="http://www.w3.org/2000/svg" width="64" height="64" viewBox="0 0 64 64">
  <defs>
    <style>
      .cls-1 {
        fill-rule: evenodd;
      }
    </style>
  </defs>
  <title>Icons 300</title>
  <path class="cls-1" d="M59.616,38.0235A1.5629,1.5629,0,0,1,57.8807,36.68L56.01,19.6669a1.5279,1.5279,0,0,1,1.4052-1.6589,1.5627,1.5627,0,0,1,1.7353,1.3434l1.8707,17.0131A1.5283,1.5283,0,0,1,59.616,38.0235Zm-53,8A1.5625,1.5625,0,0,1,4.8808,44.68L3.01,27.6669A1.5281,1.5281,0,0,1,4.4154,26.008a1.5626,1.5626,0,0,1,1.7353,1.3434L8.0213,44.3645A1.5281,1.5281,0,0,1,6.6161,46.0235ZM10.94,21.03a2.1218,2.1218,0,0,1,2.3672,1.788l2.7018,23.9756a2.0488,2.0488,0,0,1-1.9169,2.2078,2.1219,2.1219,0,0,1-2.3673-1.7879L9.0228,23.238A2.049,2.049,0,0,1,10.94,21.03ZM38.0977,7.0412a4.9661,4.9661,0,0,1,5.4952,4.3966l4.3877,37.86a5.002,5.002,0,0,1-4.34,5.5665L25.9363,56.9693a4.9658,4.9658,0,0,1-5.4949-4.3969L16.0535,14.713a5.002,5.002,0,0,1,4.34-5.5665ZM24.0291,49.1158a.9933.9933,0,0,0,1.099.8794L42.8319,47.89A1,1,0,0,0,43.7,46.7764L40.005,14.8946a.9932.9932,0,0,0-1.0991-.8793L21.2021,16.1208a1,1,0,0,0-.868,1.1131Zm26.6955-7.9023L48.0228,17.238A2.049,2.049,0,0,1,49.94,15.03a2.1221,2.1221,0,0,1,2.3673,1.788l2.7016,23.9755a2.049,2.049,0,0,1-1.9169,2.208A2.1219,2.1219,0,0,1,50.7246,41.2135Z"/>
</svg>

<svg id="Layer_1" data-name="Layer 1" xmlns="http://www.w3.org/2000/svg" width="64" height="64" viewBox="0 0 64 64"><defs><style>.cls-1{fill-rule:evenodd}</style></defs><title>Icons 300</title><path class="cls-1" d="M59.616 38.023a1.563 1.563 0 0 1-1.735-1.343L56.01 19.667a1.528 1.528 0 0 1 1.405-1.659 1.563 1.563 0 0 1 1.735 1.343l1.871 17.014a1.528 1.528 0 0 1-1.405 1.658zm-53 8a1.563 1.563 0 0 1-1.735-1.343L3.01 27.667a1.528 1.528 0 0 1 1.405-1.659 1.563 1.563 0 0 1 1.736 1.343l1.87 17.014a1.528 1.528 0 0 1-1.405 1.658zM10.94 21.03a2.122 2.122 0 0 1 2.367 1.788l2.702 23.976A2.049 2.049 0 0 1 14.092 49a2.122 2.122 0 0 1-2.367-1.788L9.023 23.238a2.049 2.049 0 0 1 1.917-2.208zM38.098 7.041a4.966 4.966 0 0 1 5.495 4.397l4.388 37.86a5.002 5.002 0 0 1-4.34 5.566L25.936 56.97a4.966 4.966 0 0 1-5.495-4.397l-4.387-37.859a5.002 5.002 0 0 1 4.34-5.566zM24.029 49.116a.993.993 0 0 0 1.1.88l17.703-2.106a1 1 0 0 0 .868-1.114l-3.695-31.881a.993.993 0 0 0-1.1-.88l-17.703 2.106a1 1 0 0 0-.868 1.113zm26.696-7.902l-2.702-23.976a2.049 2.049 0 0 1 1.917-2.208 2.122 2.122 0 0 1 2.367 1.788l2.702 23.975a2.049 2.049 0 0 1-1.917 2.208 2.122 2.122 0 0 1-2.367-1.787z"/></svg>
